X:1
T:Title
%%score { 1 | ( 2 3 ) }
L:1/8
M:3/4
K:D
V:1 treble nm="Grand Piano"
V:2 bass 
V:3 bass 
V:1
 z2 z2[Q:1/4=100] AA | A2 F2 [EA][EG] | G2 F2 FF | EE ^G2 G2 |[M:2/4] [CA]4 |[M:1/4] AA | %6
[M:3/4] d2 A2 GB | B2 A2 d[DB] | [DA][K:bass][F,D] [A,DF]2 [G,CE]2 |[M:2/4] [F,D]4 |] %10
V:2
 z2 z2 [D,F,D][D,F,D] | [D,F,D]2 [D,A,D]2 [C,A,][C,A,] | B,2 z2 z2 | %3
 [E,A,C][E,A,C] [E,B,D]2 [E,B,D]2 |[M:2/4] [A,,A,]4 |[M:1/4] [A,C][G,A,C] | %6
[M:3/4] [F,A,D]2 [D,F,D]2 [D,B,D][D,G,D] | G,2 z2 z2 | [A,,F,]A,, A,,2 A,,2 |[M:2/4] D,4 |] %10
V:3
 x6 | x6 | [D,D]2- [D,A,D]2 [D,A,D][D,A,D] | x6 |[M:2/4] x4 |[M:1/4] x2 |[M:3/4] x6 | %7
 [D,D]2- [D,F,D]2 [G,,B,D][G,,G,] | x6 |[M:2/4] x4 |] %10

